dist/svgs/td-quit.svg

<svg xmlns="http://www.w3.org/2000/svg" viewBox="0 0 512 512"><path d="M435 13q8 0 20 5 8 3 15 11 6 7 11 17 2 5 3.5 10t1.5 11v378q0 6-1.5 11t-3.5 10q-5 11-11 17-7 8-15 11-12 5-20 5H80q-8 0-20-5-8-3-15-11-7-6-11-17-4-9-4-21V337h50v108h355V67H80v108H30V67q0-12 4-21 4-10 11-17 7-8 15-11 12-5 20-5h355zM275 283H30v-54h245l-66-71 36-38 127 136-127 136-36-38z"/></svg>

<?xml version="1.0" encoding="UTF-8" standalone="no"?><svg   xmlns:svg="http://www.w3.org/2000/svg"   xmlns="http://www.w3.org/2000/svg"   version="1.1"   width="512"   height="512"   viewBox="0 0 512 512">  <path     d="M435 13Q443 13 455 18Q463 21 470 29Q476 36 481 46Q483 51 484.5 56T486 67V445Q486 451 484.5 456T481 466Q476 477 470 483Q463 491 455 494Q443 499 435 499H80Q72 499 60 494Q52 491 45 483Q38 477 34 466Q30 457 30 445V337H80V445H435V67H80V175H30V67Q30 55 34 46Q38 36 45 29Q52 21 60 18Q72 13 80 13H435zM275 283H30V229H275L209 158L245 120L372 256L245 392L209 354z"     id="td-quit" /></svg>
